X: 9149
T: Dáithi Sproule's
R: jig
M: 6/8
K: Eminor
|:BAB EFE|Ede dBG|ABA DED|FGA GFE|
~G3 AGA|Bdg dBG|AGA cBA|1 BGE Eed:|2 BGE Eef||
|:geb efe|beg fed|~A3 B/c/de|fga gfe|
~g3 aga|bge fga|gfe dBA|1 Be^d e2f:|2 Be^d e2d||

